X:58
T: De Butzemennchen, S. 26
N: L0019
O: Luxemburg
S: Die Luxemburger Volkslieder lterer Zeit, Luxemburg 1904 posth.]
R: Kinderlied, Tanzlied]
M: 2/4
L: 1/16
K: G
 | G2B2d2B2 | B2A2A2
A2 | G2B2d2B2 | B4A4
G2B2d2B2 | B2A2B2z
A | G2A2B2G2 | D4G2z2
B2ddd2z2 | B2d2G4
B2ddd2d2 | B2d2G4
F2A2e2A2 | A4G4

